packages/ckeditor5-icons/theme/icons/fullscreen-leave.svg

<svg width="20" height="20" viewBox="0 0 20 20" xmlns="http://www.w3.org/2000/svg">
<path d="M15.5305 5.53033C15.8233 5.23744 15.8233 4.76256 15.5305 4.46967C15.2376 4.17678 14.7627 4.17678 14.4698 4.46967L11.7501 7.18934V5.5C11.7501 5.08579 11.4143 4.75 11.0001 4.75C10.5859 4.75 10.2501 5.08579 10.2501 5.5V9C10.2501 9.19891 10.3291 9.38968 10.4698 9.53033C10.6104 9.67098 10.8012 9.75 11.0001 9.75H14.5001C14.9143 9.75 15.2501 9.41421 15.2501 9C15.2501 8.58579 14.9143 8.25 14.5001 8.25H12.8108L15.5305 5.53033Z"/>
<path d="M5.49979 10.25C5.08557 10.25 4.74979 10.5858 4.74979 11C4.74979 11.4142 5.08557 11.75 5.49979 11.75H7.18913L4.46946 14.4697C4.17656 14.7626 4.17656 15.2374 4.46946 15.5303C4.76235 15.8232 5.23722 15.8232 5.53012 15.5303L8.24979 12.8107V14.5C8.24979 14.9142 8.58557 15.25 8.99979 15.25C9.414 15.25 9.74979 14.9142 9.74979 14.5V11C9.74979 10.5858 9.414 10.25 8.99979 10.25H5.49979Z"/>
<path d="M0 2C0 0.895431 0.895431 0 2 0H18C19.1046 0 20 0.895431 20 2V18C20 19.1046 19.1046 20 18 20H2C0.895431 20 0 19.1046 0 18V2ZM18.5 2C18.5 1.72386 18.2761 1.5 18 1.5H2C1.72386 1.5 1.5 1.72386 1.5 2V18C1.5 18.2761 1.72386 18.5 2 18.5H18C18.2761 18.5 18.5 18.2761 18.5 18V2Z"/>
</svg>

<svg viewBox="0 0 20 20" xmlns="http://www.w3.org/2000/svg"><path d="M15.53 5.53a.75.75 0 0 0-1.06-1.06l-2.72 2.72V5.5a.75.75 0 0 0-1.5 0V9a.75.75 0 0 0 .75.75h3.5a.75.75 0 0 0 0-1.5h-1.69l2.72-2.72Z"/><path d="M5.5 10.25a.75.75 0 0 0 0 1.5h1.69l-2.72 2.72a.75.75 0 1 0 1.06 1.06l2.72-2.72v1.69a.75.75 0 0 0 1.5 0V11a.75.75 0 0 0-.75-.75H5.5Z"/><path d="M0 2a2 2 0 0 1 2-2h16a2 2 0 0 1 2 2v16a2 2 0 0 1-2 2H2a2 2 0 0 1-2-2V2Zm18.5 0a.5.5 0 0 0-.5-.5H2a.5.5 0 0 0-.5.5v16a.5.5 0 0 0 .5.5h16a.5.5 0 0 0 .5-.5V2Z"/></svg>
